img/why-we/heart.svg

<svg width="34" height="33" viewBox="0 0 34 33" fill="none" xmlns="http://www.w3.org/2000/svg">
<g clip-path="url(#clip0_384_378)">
<path d="M9.95491 3.589C10.941 3.589 12.7251 4.06093 15.6181 6.91063L17.052 8.3224L18.4648 6.88749C20.4732 4.84681 22.6105 3.57894 24.0424 3.57894C25.9734 3.57894 27.4959 4.23904 28.9801 5.72024C30.3788 7.1149 31.1495 8.97043 31.1495 10.9437C31.1506 12.9179 30.3808 14.7745 28.967 16.1852C28.8523 16.302 22.7725 22.8607 17.6789 28.3578C17.4394 28.5863 17.1647 28.6195 17.0188 28.6195C16.8749 28.6195 16.6042 28.5873 16.3647 28.3649C15.124 26.9843 6.12713 16.9812 5.08164 15.9367C3.68195 14.54 2.91116 12.6835 2.91116 10.7102C2.91116 8.73697 3.68195 6.88246 5.08265 5.48578C6.4441 4.12533 8.038 3.589 9.95491 3.589ZM9.95491 1.5765C7.54796 1.5765 5.42678 2.29597 3.66082 4.06093C-0.0210531 7.73274 -0.0210531 13.6867 3.66082 17.3605C4.71235 18.4121 14.9137 29.7606 14.9137 29.7606C15.4953 30.3422 16.2581 30.631 17.0198 30.631C17.7815 30.631 18.5412 30.3422 19.1239 29.7606C19.1239 29.7606 30.2832 17.7157 30.4019 17.596C34.0818 13.9212 34.0818 7.96619 30.4019 4.29438C28.5746 2.47005 26.5329 1.56543 24.0434 1.56543C21.6646 1.56543 19.0122 3.46221 17.0309 5.47471C14.9872 3.46221 12.4172 1.5765 9.95591 1.5765H9.95491Z" fill="#FBD8D5"/>
</g>
<defs>
<clipPath id="clip0_384_378">
<rect width="32.2" height="32.2" fill="white" transform="translate(0.899902)"/>
</clipPath>
</defs>
</svg>

<svg width="34" height="33" fill="none" xmlns="http://www.w3.org/2000/svg"><g clip-path="url(#clip0_384_378)"><path d="M9.955 3.589c.986 0 2.77.472 5.663 3.322l1.434 1.411 1.413-1.435c2.008-2.04 4.145-3.308 5.577-3.308 1.931 0 3.454.66 4.938 2.141a7.329 7.329 0 012.17 5.224 7.342 7.342 0 01-2.183 5.241c-.115.117-6.194 6.676-11.288 12.173a.95.95 0 01-.66.261.955.955 0 01-.654-.254C15.124 26.985 6.127 16.98 5.082 15.937a7.336 7.336 0 01-2.17-5.227c0-1.973.77-3.828 2.17-5.224 1.362-1.36 2.956-1.897 4.873-1.897zm0-2.013c-2.407 0-4.528.72-6.294 2.485a9.387 9.387 0 000 13.3c1.051 1.051 11.253 12.4 11.253 12.4.581.581 1.344.87 2.106.87.762 0 1.521-.289 2.104-.87 0 0 11.16-12.045 11.278-12.165a9.393 9.393 0 000-13.302c-1.827-1.824-3.87-2.729-6.359-2.729-2.378 0-5.03 1.897-7.012 3.91-2.044-2.013-4.614-3.898-7.075-3.898h-.001z" fill="#FBD8D5"/></g><defs><clipPath id="clip0_384_378"><path fill="#fff" transform="translate(.9)" d="M0 0h32.2v32.2H0z"/></clipPath></defs></svg>
